src/images/icons/modal/addJob.svg

<svg xmlns="http://www.w3.org/2000/svg" viewBox="0 0 48 48"><path d="M22.5 34h3v-8.5H34v-3h-8.5V14h-3v8.5H14v3h8.5ZM6 42V6h36v36Zm3-3h30V9H9Zm0 0V9v30Z"/></svg>

<svg xmlns="http://www.w3.org/2000/svg" viewBox="0 0 48 48"><path d="M22.5 34H25.5V25.5H34V22.5H25.5V14H22.5V22.5H14V25.5H22.5ZM6 42V6H42V42ZM9 39H39V9H9ZM9 39V9V39Z"/></svg>
